X: 175
T: No_84_Song_of_Good_Medicine.krn
N: Derived from No_84_Song_of_Good_Medicine.krn
%%abc-version 2.0
%%abcx-abcm2ps-target-version 5.9.1 (29 Sep 2008)
%%abc-creator hum2abc beta
%%abcx-conversion-date 2019/03/15 08:29:13
%%humdrum-veritas 2961245994
%%humdrum-veritas-data 2415469641
%%linebreak <none>
%%barnumbers 0
L: 1/8
M: 2/4
%%staves {1 2}
V: 1 clef=bass
V: 2 clef=bass
K: Db
[V:1] [K:clef=bass][M:2/4]A,A, A,A,/A,/ | 
[V:2] [K:clef=bass][M:2/4]G,,G,, G,,G,, | 
[V:1] A,3/B,/B,2 ||  
[V:2] G,,G,, G,,G,, ||  
[V:1] [M:3/4]A,2A,/A,3/-A,2 ||  
[V:2] [M:3/4]z6 ||  
[V:1] [M:2/4]DD DD/D/ | 
[V:2] [M:2/4]z4 | 
[V:1] D3/A,/A,2 | 
[V:2] z4 | 
[V:1] A,A,/D,/- D,3/D,/ | 
[V:2] z4 | 
[V:1] D,2E,3/G,/ ||  
[V:2] z4 ||  
[V:1] [M:3/4]G,2G,A,/A,/ A,A,/A,/ | 
[V:2] [M:3/4]z6 | 
[V:1] G,3/G,/G,2E,G,/G,/ | 
[V:2] z6 | 
[V:1] G,D,/D,/ D,3/D,/!fermata!E,2 | 
[V:2] z6 | 
[V:1] D,3D,- D,/D,3/ |]  
[V:2] z6 |]  



